build/img/landings/copywriting/ylearn/i3.svg

<svg width="261" height="267" viewBox="0 0 261 267" fill="none" xmlns="http://www.w3.org/2000/svg">
<path fill-rule="evenodd" clip-rule="evenodd" d="M42.1283 191.812L42.7283 190.614L41.6873 189.769C17.1857 169.886 2 141.912 2 110.986C2 51.0378 59.2259 2 130.406 2C201.586 2 258.811 51.0378 258.811 110.986C258.811 170.935 201.586 219.973 130.406 219.973C111.257 219.973 93.0955 216.415 76.7824 210.041L75.8907 209.693L75.1397 210.286L5.18402 265.59L42.1283 191.812Z" stroke="#6983FF" stroke-width="3"/>
<path d="M47.8347 144.489C58.2601 117.526 82.8855 67.3771 97.9841 82.4761C113.083 97.575 104.275 126.514 97.9841 139.096C106.073 128.491 121.711 112.242 119.554 132.086C116.857 156.891 115.24 111.056 137.888 125.076C160.536 139.096 147.055 154.195 137.888 144.489C128.721 134.783 148.133 117.527 160.536 128.311C172.938 139.096 176.713 153.116 188.037 139.096C197.097 127.88 207.269 92.0026 211.224 75.4663" stroke="black" stroke-width="8" stroke-linecap="round"/>
</svg>

<svg width="261" height="267" fill="none" xmlns="http://www.w3.org/2000/svg"><path clip-rule="evenodd" d="M42.128 191.812l.6-1.198-1.04-.845C17.185 169.886 2 141.912 2 110.986 2 51.038 59.226 2 130.406 2s128.405 49.038 128.405 108.986c0 59.949-57.225 108.987-128.405 108.987-19.149 0-37.31-3.558-53.624-9.932l-.891-.348-.751.593L5.184 265.59l36.944-73.778z" stroke="#6983FF" stroke-width="3"/><path d="M47.835 144.489c10.425-26.963 35.05-77.112 50.15-62.013 15.098 15.099 6.29 44.038 0 56.62 8.088-10.605 23.726-26.854 21.569-7.01-2.697 24.805-4.314-21.03 18.334-7.01 22.648 14.02 9.167 29.119 0 19.413s10.245-26.962 22.648-16.178c12.402 10.785 16.177 24.805 27.501 10.785 9.06-11.216 19.232-47.093 23.187-63.63" stroke="#000" stroke-width="8" stroke-linecap="round"/></svg>
